X:1
T:Billy Crystal's Frolics
R:jig
C:Jeff Lindqvist
S:Jeff Lindqvist <jeff_lindqvist:spray.se> irtrad-l 2000-03-29
H:March 27, -00
N:Composed during the 2000 Oscar Academy Award (which was on TV).
M:6/8
L:1/8
K:Dm
"Dm"A,DF "Dm"EDA, | "Bb"B,DG "Bb"FED | "C"CEA "C"GAE | "Am"FDE "Am"CDG, |
"Dm"A,DF "Dm"EDA, | "Bb"B,DG "Bb"FED | "C"CEA "C"GAG | "Am"EDC "Dm"~D3 :|
|: "Dm"DFA "Gm"dcA | "C"cdc "F"~A3 | "Bb"BAG "E7/G#"ded | "A"efe "A7/C#"~^c3 |
"Bb"dcB "F"AGF | "Gm"GAB "Dm"AFD | "C"CEA "C"GAG | "Am"EDC "Dm"~D3 :|
